packages/gestalt-icons-android/vr-theme/ic_vr_phone_gestalt.svg

<svg width="24" height="24" viewBox="0 0 24 24" fill="none" xmlns="http://www.w3.org/2000/svg">
<path fill-rule="evenodd" clip-rule="evenodd" d="M7.33354 3.00049C4.93413 3.03602 3 4.99214 3 7.4V7.71429C3 15.0518 8.94822 21 16.2857 21H16.6576C19.0289 21 20.9562 19.0993 20.9993 16.7383L16.0156 15.2049L14.5641 18.1078L13.8356 17.9864C9.82492 17.3179 6.68205 14.1751 6.01361 10.1644L5.8991 9.47734L9.23739 7.56974L7.33354 3.00049ZM1 7.4C1 3.86538 3.86538 1 7.4 1C8.16703 1 8.85883 1.4612 9.15385 2.16923L11.0835 6.80051C11.4715 7.73157 11.1054 8.8058 10.2297 9.30623L8.1297 10.5062C8.81285 13.1158 10.8487 15.1618 13.4523 15.8593L14.2267 14.3105C14.664 13.436 15.6693 13.0058 16.6038 13.2933L21.6655 14.8508C22.4587 15.0949 23 15.8277 23 16.6576C23 20.1604 20.1604 23 16.6576 23H16.2857C7.84365 23 1 16.1564 1 7.71429V7.4Z" fill="black"/>
</svg>

<svg xmlns="http://www.w3.org/2000/svg" width="24" height="24"><path d="M7.33 3A4.4 4.4 0 0 0 3 7.4v.31C3 15.05 8.95 21 16.29 21h.37c2.37 0 4.3-1.9 4.34-4.26l-4.98-1.54-1.46 2.9-.72-.11A9.5 9.5 0 0 1 6 10.16l-.11-.68 3.34-1.91zM1 7.4A6.4 6.4 0 0 1 7.4 1c.77 0 1.46.46 1.75 1.17l1.93 4.63a2 2 0 0 1-.85 2.5l-2.1 1.2a7.5 7.5 0 0 0 5.32 5.36l.78-1.55a2 2 0 0 1 2.37-1.02l5.07 1.56c.79.24 1.33.98 1.33 1.8A6.34 6.34 0 0 1 16.66 23h-.37A15.3 15.3 0 0 1 1 7.71z"/></svg>
